!! 00000] TT[00
!! NN
!!!OTL: Qiao qing jia
!!!ARE: Asia, China,ÿLiaoning, Gaixian
!! Ethnic Group: Han
!! III, 291
!!!SCT: C0298
!!!YEM: Copyright 1995, estate of Helmut Schaffrath.
**kern
*ICvox
*Ivox
*M2/4
*k[]
*C:
{8ee
16ee
16gg
8ee
8dd
=1
8cc
16cc
16dd
4cc
=2
8a
16a
16g
8e
8b
=3
2a}
=4
{8.cc
16a
8cc
8dd
=5
8ee
8gg
8ee
8dd
=6
8.cc
16dd
8ee
8dd
=7
2cc}
=8
{8cc
16a
16g
8e
8b
=9
4.a
8r}
=10
{16a
16cc
16a
16g
8e
8b
=11
4.a
8r}
=12
{8.cc
16a
8cc
8dd
=13
8ee
8gg
8ee
8dd
=14
8.cc
16dd
8ee
8dd
=15
4.cc
8dd
=16
4.b
8dd
=17
2a}
=18
{8.g
16a
4cc
=19
8.a
16cc
8a
8g
=20
8g
8e
8d
8e
=21
8.g
16a
8e
8d
=22
2c}
==
!!!AGN: Xiaodiao, Yinniusi diao
!! Antike Melodie. Ende der Ming und Qin-Dynastie. Leicht prosaisch:
!!    Zwei Schwiegermuetter streiten miteinander am Ende des Liedes, ob
!!    nun der Sohn oder die Tochter nichts tauge. Diese Melodie wurde
!!    haeufig den Europaeern vorgetragen.
!!    Vereinzelt Verzierungen.
!!!ONB: ESAC (Essen Associative Code) Database: CHINA
!!!AMT: simple duple
!!!AIN: vox
!!!EED: Helmut Schaffrath
!!!EEV: 1.0
*-
